X:1
T:The Jolly Young Sailor
M:3/4
L:1/4
K:D
D/2-F/2| A AB/2-A/2| F F D/2D/2| E E E| D zF/2-G/2| A AB/2-G/2| G G B|\
 d dd/2-B/2| A zD/2-F/2| A AB/2-A/2| G G B| d dd/2-B/2| A z D/2D/2|\
 A AB/2-A/2| F F D| E E E| D3/2 z/2||
